X: 4351
T: LISTEN! MUSIC INVITETH. (Lucrezia Borgia.)
%R: air, waltz
B: James Kerr "Merry Melodies" v.4 p.37 #351
Z: 2016 John Chambers <jc:trillian.mit.edu>
M: 3/8
L: 1/8
K: D
|: "_p 2nd f"\
A2d | (c/B/)A2 | GAB | A3 |\
F2A | (G/F/)E2 | EFE | (D/C/)D/E/F/G/ |\
A>fe/d/ | (c/B/)A2 | GAB | A3 |\
F2A | (G/F/)E2 |
E/F/G/A/B/c/ | d2z H:|\
F3 | (F2B) | BAG | FDE |\
F3 | (F2B) | BAG | FBG |\
FBG | FBG | FBG | F2z |\
B3 | "_D.C."_B3 |]

%%sep 1 1 500
%%sep 1 1 500

